static/assets/images/tokens/tusd.svg

<svg width="256" height="256" viewBox="0 0 256 256" fill="none" xmlns="http://www.w3.org/2000/svg">
<path d="M128 256C198.692 256 256 198.692 256 128C256 57.3076 198.692 0 128 0C57.3076 0 0 57.3076 0 128C0 198.692 57.3076 256 128 256Z" fill="#356EFF"/>
<path d="M52.8044 68.174C52.8054 68.153 52.8145 68.1331 52.8298 68.1186C52.8451 68.1041 52.8654 68.096 52.8865 68.096H103.013C103.059 68.096 103.083 68.1193 103.083 68.1658C102.941 87.6829 91.9756 105.297 74.2795 113.633C69.0205 116.112 63.6651 117.605 58.2132 118.112C57.4701 118.182 55.7014 118.312 52.907 118.502C52.8222 118.509 52.7811 118.469 52.7838 118.383C52.8003 117.995 52.7366 117.632 52.7366 117.269C52.7339 101.613 52.7401 85.958 52.7551 70.3027C52.7565 69.5979 52.7729 68.8884 52.8044 68.174Z" fill="white"/>
<path d="M203.655 118.752C187.753 118.735 169.487 118.708 153.578 118.719C153.566 118.719 153.553 118.721 153.541 118.726C153.53 118.731 153.519 118.738 153.51 118.747C153.501 118.756 153.494 118.767 153.489 118.779C153.484 118.791 153.482 118.803 153.482 118.816V221.029C153.482 221.07 153.465 221.11 153.436 221.139C153.407 221.168 153.368 221.184 153.327 221.184H103.189C103.121 221.184 103.086 221.15 103.086 221.081C103.082 186.25 103.082 151.424 103.084 116.601C103.086 114.406 103.387 111.81 103.988 108.815C107.229 92.6714 117.714 79.4319 132.635 72.5862C139.389 69.4863 146.803 68.1139 154.362 68.1056C154.362 68.1056 187.197 68.0905 203.681 68.1056C203.706 68.1056 203.73 68.1156 203.748 68.1334C203.766 68.1512 203.776 68.1754 203.776 68.2005V118.62C203.776 118.701 203.736 118.745 203.655 118.752Z" fill="white"/>
</svg>

<svg xmlns="http://www.w3.org/2000/svg" fill="none" viewBox="0 0 256 256"><path fill="#356EFF" d="M128 256c70.692 0 128-57.308 128-128S198.692 0 128 0 0 57.308 0 128s57.308 128 128 128"/><path fill="#fff" d="M52.804 68.174a.08.08 0 0 1 .082-.078h50.127q.07 0 .07.07c-.142 19.517-11.107 37.131-28.803 45.467q-7.89 3.718-16.067 4.479-1.115.105-5.306.39-.127.01-.123-.119c.016-.388-.047-.751-.047-1.114q-.005-23.484.018-46.966a51 51 0 0 1 .05-2.129m150.85 50.578c-15.902-.017-34.168-.044-50.077-.033a.1.1 0 0 0-.037.007.1.1 0 0 0-.059.09v102.213a.16.16 0 0 1-.046.11.15.15 0 0 1-.109.045h-50.138q-.102 0-.103-.103-.006-52.246-.002-104.48.003-3.293.904-7.786c3.241-16.144 13.726-29.383 28.647-36.229 6.754-3.1 14.168-4.472 21.727-4.48 0 0 32.835-.015 49.319 0a.095.095 0 0 1 .095.095v50.419q0 .121-.121.132"/></svg>
